icons/card-club.svg

<svg width="24" height="24" viewBox="0 0 24 24" fill="none" xmlns="http://www.w3.org/2000/svg">
<path d="M10.5249 16.5778C9.99839 17.1814 9.31731 17.6366 8.55172 17.8965C7.78614 18.1565 6.96372 18.2117 6.1691 18.0567C5.37448 17.9016 4.63637 17.5418 4.03073 17.0143C3.4251 16.4868 2.97382 15.8106 2.72335 15.0554C2.47287 14.3002 2.43224 13.4932 2.60565 12.7175C2.77905 11.9418 3.16022 11.2254 3.70993 10.642C4.25963 10.0586 4.95802 9.62932 5.7332 9.39834C6.50839 9.16736 7.33237 9.14302 8.12034 9.32781L8.12028 9.32808C7.69163 8.65098 7.4554 7.8739 7.43605 7.07727C7.4167 6.28064 7.61493 5.49342 8.01022 4.79709C8.40551 4.10076 8.9835 3.52064 9.68434 3.11677C10.3852 2.7129 11.1834 2.49996 11.9964 2.5C12.8094 2.50004 13.6077 2.71304 14.3085 3.11698C15.0093 3.52091 15.5872 4.10108 15.9824 4.79744C16.3777 5.4938 16.5758 6.28104 16.5564 7.07767C16.537 7.8743 16.3007 8.65136 15.872 9.32842L15.8713 9.32801C16.6599 9.14213 17.4848 9.16568 18.261 9.39624C19.0373 9.62679 19.7367 10.056 20.2874 10.6397C20.8381 11.2234 21.22 11.9404 21.3939 12.7169C21.5678 13.4934 21.5273 14.3013 21.2767 15.0573C21.026 15.8134 20.5742 16.4903 19.9679 17.0182C19.3615 17.5462 18.6225 17.9062 17.8269 18.0611C17.0314 18.2161 16.2081 18.1603 15.4419 17.8996C14.6756 17.6389 13.9942 17.1826 13.4677 16.5779L15.0372 21.5H8.95525L10.5249 16.5778Z" stroke="white" stroke-width="2" stroke-linecap="round" stroke-linejoin="round"/>
</svg>

<svg
  width="24"
  height="24"
  viewBox="0 0 24 24"
  xmlns="http://www.w3.org/2000/svg"
  fill="none"
  stroke="currentColor"
  stroke-width="2"
  stroke-linecap="round"
  stroke-linejoin="round"
>
  <path d="M10.525 16.578a4.564 4.564 0 0 1-1.973 1.319 4.647 4.647 0 0 1-2.383.16 4.596 4.596 0 0 1-2.138-1.043 4.462 4.462 0 0 1-1.308-1.959 4.384 4.384 0 0 1-.117-2.338 4.44 4.44 0 0 1 1.104-2.075 4.573 4.573 0 0 1 2.023-1.244 4.648 4.648 0 0 1 2.387-.07 4.4 4.4 0 0 1-.11-4.531 4.514 4.514 0 0 1 1.674-1.68 4.632 4.632 0 0 1 4.625 0c.7.404 1.278.984 1.673 1.68a4.4 4.4 0 0 1-.11 4.531 4.65 4.65 0 0 1 2.389.068c.776.23 1.476.66 2.026 1.244.551.583.933 1.3 1.107 2.077a4.387 4.387 0 0 1-.117 2.34 4.465 4.465 0 0 1-1.31 1.961 4.598 4.598 0 0 1-2.14 1.043c-.796.155-1.619.1-2.385-.161a4.566 4.566 0 0 1-1.974-1.322l1.57 4.922H8.954l1.57-4.922z" />
</svg>
